X:901
T:The minstrel boy
R:March
B:O'Neill's 203
S:My arrangement from various sources
Z:Transcription, arrangement, chords:Mike Long
M:C
L:1/8
K:G
D2|\
"G"G3A cBAG|"G"B2d2 "C"g2fg|\
"G"e2d2 B>cdB|"D"A4 "G"G2:|\
d2|\
"Em"g2f2 e2fg|"D"f2e2 "Bm"d3^d|
"Em"e3B B2d2|"C"edef g2D2|\
"G"G2GA cBAG|"G"B2d2 "C"g2fg|\
"G"e2d2 B>cdB|"D"A4 "G"G2|]
